svg/black/sys.svg

<svg width="32" height="32" viewBox="0 0 32 32" xmlns="http://www.w3.org/2000/svg">
  <path d="M13.147,15.4341 C13.162,15.4651 13.16,15.5011 13.144,15.5321 C13.112,15.5871 13.043,15.6071 12.987,15.5791 C5.45,11.6591 19.828,7.0941 27.751,12.4391 C27.847,12.4941 27.931,12.5481 28,12.6021 C27.919,12.5441 27.834,12.4951 27.751,12.4391 C24.811,10.7631 10.147,9.0961 13.147,15.4341 M21.473,20.7531 C25.631,18.8631 22.249,12.3921 16.748,13.6411 C16.687,13.6551 16.625,13.6171 16.609,13.5561 C16.6,13.5151 16.616,13.4721 16.65,13.4461 C20.93,10.2301 28.964,17.7381 21.473,20.7531 M4,18.0111 C16.101,25.7541 22.334,18.4781 17.955,15.3001 C17.953,15.2991 17.951,15.2971 17.949,15.2961 C17.902,15.2591 17.895,15.1901 17.932,15.1441 C17.959,15.1101 18.004,15.0941 18.046,15.1031 C28.547,17.0011 14.26,27.6661 4,18.0111 M12.2,10.8551 C12.201,10.8551 12.201,10.8551 12.201,10.8551 L12.202,10.8551 C12.202,10.8551 12.201,10.8551 12.2,10.8551 C5.581,15.3951 12.944,17.4541 14.281,17.0191 C14.302,17.0131 14.324,17.0131 14.345,17.0171 C14.347,17.0181 14.349,17.0191 14.352,17.0191 C14.41,17.0351 14.444,17.0971 14.428,17.1551 C13.525,20.6181 3.118,13.7631 12.2,10.8551 M16,0.0001 C7.164,0.0001 0,7.1631 0,16.0001 C0,24.8361 7.164,32.0001 16,32.0001 C24.836,32.0001 32,24.8361 32,16.0001 C32,7.1631 24.836,0.0001 16,0.0001"></path>
</svg>

<svg height="32" viewBox="0 0 32 32" width="32" xmlns="http://www.w3.org/2000/svg"><path d="m13.147 15.4341c.015.031.013.067-.003.098-.032.055-.101.075-.157.047-7.537-3.92 6.841-8.485 14.764-3.14.096.055.18.109.249.163-.081-.058-.166-.107-.249-.163-2.94-1.676-17.604-3.343-14.604 2.995m8.326 5.319c4.158-1.89.776-8.361-4.725-7.112-.061.014-.123-.024-.139-.085-.009-.041.007-.084.041-.11 4.28-3.216 12.314 4.292 4.823 7.307m-17.473-2.742c12.101 7.743 18.334.467 13.955-2.711-.002-.001-.004-.003-.006-.004-.047-.037-.054-.106-.017-.152.027-.034.072-.05.114-.041 10.501 1.898-3.786 12.563-14.046 2.908m8.2-7.156h.001.001s-.001 0-.002 0c-6.619 4.54.744 6.599 2.081 6.164.021-.006.043-.006.064-.002.002.001.004.002.007.002.058.016.092.078.076.136-.903 3.463-11.31-3.392-2.228-6.3m3.8-10.855c-8.836 0-16 7.163-16 16 0 8.836 7.164 16 16 16s16-7.164 16-16c0-8.837-7.164-16-16-16"/></svg>
